X: 461
T: Sibao langong
%%abc-version 2.0
%%abcx-abcm2ps-target-version 5.9.1 (29 Sep 2008)
%%abc-creator hum2abc beta
%%abcx-conversion-date 2013/10/02 07:52:30
%%abc-edited-by Helmut Schaffrath
%%humdrum-veritas 925478905
%%humdrum-veritas-data 194483971
%%continueall 1
%%barnumbers 0
L: 1/16
M: 2/4
K: Bb
c2 c dc4 [I:setbarnb 1]| 
d f d cB4 | 
B c d f c d c B | 
G2> F2D4 | 
F2> G2 B d c B | 
G B D F G2 G2 | 
G2 d2 c d c B | 
G B F G B2 A G | 
F2 E DC4 |]  



